X:1415
T:The Rambler's Rest
M:C|
L:1/8
N:"collected by Early"
B:O'Neill's 1415
Z:"Transcribed by Bob Safranek, rjs@gsp.org"
K:G
B|A2 Ag fdec|A2 Ac BGGB|A2 Ag fdef|agfgd  BG G :|
f|eaaf    gfed|cAeA    cdef|eaaf    gfef|gfgd  BGGf|
eaaf    gfed|cAeA    cdef|afge    fdef|gfge  BG G|]
